src/assets/images/landing/13-jeu-3.svg

<svg width="436" height="599" fill="none" xmlns="http://www.w3.org/2000/svg"><path d="M97.5 246v-15.5a5 5 0 015-5H321a5 5 0 015 5V246a5 5 0 01-5 5H102.5a5 5 0 01-5-5zm14 47.999c-10.656-.969-40.708-10.691-60.49-17.384-4.3-1.455-4.24-6.548.242-7.272 22.897-3.696 63.544-3.104 85.785-2.887a5.011 5.011 0 014.963 5.01v18.04c0 2.555-1.923 4.696-4.474 4.849-6.119.367-15.906.564-26.026-.356zm218-.001c10.616-.965 39.189-9.648 58.467-15.958 4.315-1.413 4.283-6.541-.187-7.336-22.475-4-61.788-4.317-83.816-4.232a4.987 4.987 0 00-4.964 4.993v18.04c0 2.556 1.923 4.696 4.474 4.849 6.119.367 15.906.564 26.026-.356z" fill="#FAFCF8" stroke="#D9D9D9" stroke-width="5" stroke-linejoin="round"/><path d="M140.501 285.001v-13.697a4.976 4.976 0 014.267-4.928c68.65-9.766 128.062-4.594 153.247-.132 2.339.414 3.986 2.462 3.986 4.838v13.919a5 5 0 005 5h32.259c2.218 0 4.156 1.401 4.764 3.535 29.354 103.099 44.639 302.465-123.023 302.465-167.64 0-154.336-199.311-126-302.422.592-2.155 2.542-3.578 4.776-3.578h35.724a5 5 0 005-5z" fill="#FAFCF8" stroke="#D9D9D9" stroke-width="5" stroke-linejoin="round"/><ellipse cx="220" cy="463" rx="85" ry="103" fill="#FAFCF8" stroke="#D9D9D9" stroke-width="5" stroke-linejoin="round"/><path d="M217.01 395.103c-10.853.982-21.289 6.423-26.459 9.861-1.063.708-1.749 1.832-1.946 3.094-3.808 24.401-3.142 69.853 28.405 70.924 31.555 1.071 33.959-45.564 31.089-70.869-.146-1.295-.809-2.47-1.871-3.225-6.038-4.289-18.173-10.785-29.218-9.785zM40 268.193v1.776c0 2.961 2.525 5.276 5.472 4.99 37.41-3.631 117.666-9.957 180.028-9.957 61.866 0 133.338 6.225 166.437 9.87a5.012 5.012 0 005.563-4.988v-1.903c0-1.836-.98-3.526-2.65-4.289-17.524-8.005-71.35-22.055-169.35-23.19-98.778-1.145-160.859 14.287-182.604 23.238-1.8.74-2.896 2.507-2.896 4.453zM3 128C3 58.964 58.964 3 128 3h180c69.036 0 125 55.964 125 125v51.267c0 1.123-.365 2.195-1.132 3.014C424.009 190.676 373.215 237.5 218 237.5S11.991 190.676 4.132 182.281C3.365 181.461 3 180.39 3 179.267V128z" fill="#FAFCF8" stroke="#D9D9D9" stroke-width="5" stroke-linejoin="round"/><circle cx="209" cy="73" r="30" fill="#FAFCF8" stroke="#D9D9D9" stroke-width="5" stroke-linejoin="round"/><circle cx="209" cy="73" r="21" fill="#FAFCF8" stroke="#D9D9D9" stroke-width="5" stroke-linejoin="round"/><circle cx="218" cy="449" r="134" stroke="#999" stroke-width="10"/><mask id="a" style="mask-type:alpha" maskUnits="userSpaceOnUse" x="229" y="224" width="128" height="234"><path transform="rotate(-165 298.941 457.77)" fill="#D9D9D9" d="M298.941 457.77h72.103v222.003h-72.103z"/></mask><g mask="url(#a)" fill="#fff" stroke="#81EC40" stroke-width="5" stroke-linejoin="round"><path d="M346.249 255.456c.993-5.571-1.616-11.342-3.044-13.532l-46.095-12.351c-3.89-1.042-37.501 132.953-36.48 136.145 1.021 3.192 3.222 5.867 9.3 10.414 4.862 3.637 10.305 12.628 12.419 16.668l11.887 16.318c2.148-2.829 8.324-10.527 15.846-18.684 9.403-10.196 34.927-128.014 36.167-134.978zm-73.39 164.97c1.929-.456 6.441-1.943 9.059-4.244l-9.381-8.558c.164 1.878-3.146 6.036-4.821 7.88l5.143 4.922z"/><path d="M285.062 418.689l11.833-10.942-15.753-15.895-11.209 13.048s3.489 6.355 6.634 9.355c3.146 3 8.495 4.434 8.495 4.434z"/></g><path d="M203.578 432.684V472h-4.969v-33.113l-10.017 3.653v-4.485l14.207-5.371h.779zm39.155 16.65v5.962c0 3.205-.287 5.908-.859 8.11-.573 2.202-1.397 3.975-2.471 5.318-1.074 1.342-2.372 2.318-3.894 2.927-1.504.591-3.205.886-5.103.886-1.504 0-2.891-.188-4.162-.564a9.89 9.89 0 01-3.438-1.799c-1.002-.842-1.862-1.934-2.578-3.277-.716-1.342-1.262-2.972-1.638-4.887-.376-1.916-.564-4.154-.564-6.714v-5.962c0-3.205.286-5.89.859-8.057.591-2.166 1.424-3.903 2.498-5.21 1.074-1.324 2.363-2.273 3.867-2.846 1.522-.573 3.223-.86 5.103-.86 1.521 0 2.918.188 4.189.564a9.456 9.456 0 013.437 1.746c1.003.788 1.854 1.844 2.552 3.169.716 1.307 1.262 2.909 1.638 4.807.376 1.898.564 4.127.564 6.687zm-4.995 6.768v-7.601c0-1.754-.108-3.294-.322-4.619-.197-1.342-.493-2.488-.887-3.437-.394-.949-.895-1.719-1.504-2.31a5.31 5.31 0 00-2.067-1.289c-.77-.286-1.639-.429-2.605-.429-1.182 0-2.229.223-3.143.671-.913.43-1.682 1.119-2.309 2.068-.609.949-1.074 2.193-1.397 3.733-.322 1.539-.483 3.41-.483 5.612v7.601c0 1.754.098 3.303.295 4.646.215 1.342.529 2.506.94 3.491.412.967.913 1.763 1.504 2.39a5.612 5.612 0 002.041 1.396c.788.287 1.656.43 2.605.43 1.218 0 2.283-.233 3.196-.698.913-.466 1.674-1.191 2.283-2.175.626-1.003 1.092-2.283 1.396-3.841.305-1.575.457-3.455.457-5.639z" fill="#000"/></svg>

<svg width="436" height="599" viewBox="0 0 436 599" fill="none" xmlns="http://www.w3.org/2000/svg">
<path d="M97.5 246V230.5C97.5 227.739 99.7386 225.5 102.5 225.5H321C323.761 225.5 326 227.739 326 230.5V246C326 248.761 323.761 251 321 251H102.5C99.7386 251 97.5 248.761 97.5 246Z" fill="#FAFCF8" stroke="#D9D9D9" stroke-width="5" stroke-linejoin="round"/>
<path d="M111.5 293.999C100.844 293.03 70.7916 283.308 51.0099 276.615C46.7091 275.16 46.7692 270.067 51.2516 269.343C74.1488 265.647 114.796 266.239 137.037 266.456C139.785 266.483 142 268.717 142 271.466V289.506C142 292.061 140.077 294.202 137.526 294.355C131.407 294.722 121.62 294.919 111.5 293.999Z" fill="#FAFCF8" stroke="#D9D9D9" stroke-width="5" stroke-linejoin="round"/>
<path d="M329.5 293.998C340.116 293.033 368.689 284.35 387.967 278.04C392.282 276.627 392.25 271.499 387.78 270.704C365.305 266.704 325.992 266.387 303.964 266.472C301.216 266.482 299 268.717 299 271.465V289.505C299 292.061 300.923 294.201 303.474 294.354C309.593 294.721 319.38 294.918 329.5 293.998Z" fill="#FAFCF8" stroke="#D9D9D9" stroke-width="5" stroke-linejoin="round"/>
<path d="M140.501 285.001V271.304C140.501 268.83 142.319 266.724 144.768 266.376C213.418 256.61 272.83 261.782 298.015 266.244C300.354 266.658 302.001 268.706 302.001 271.082V285.001C302.001 287.762 304.239 290.001 307.001 290.001H339.26C341.478 290.001 343.416 291.402 344.024 293.536C373.378 396.635 388.663 596.001 221.001 596.001C53.3615 596.001 66.6648 396.69 95.0006 293.579C95.5928 291.424 97.5426 290.001 99.7774 290.001H135.501C138.262 290.001 140.501 287.762 140.501 285.001Z" fill="#FAFCF8" stroke="#D9D9D9" stroke-width="5" stroke-linejoin="round"/>
<ellipse cx="220" cy="463" rx="85" ry="103" fill="#FAFCF8" stroke="#D9D9D9" stroke-width="5" stroke-linejoin="round"/>
<path d="M217.01 395.103C206.157 396.085 195.721 401.526 190.551 404.964C189.488 405.672 188.802 406.796 188.605 408.058C184.797 432.459 185.463 477.911 217.01 478.982C248.565 480.053 250.969 433.418 248.099 408.113C247.953 406.818 247.29 405.643 246.228 404.888C240.19 400.599 228.055 394.103 217.01 395.103Z" fill="#FAFCF8" stroke="#D9D9D9" stroke-width="5" stroke-linejoin="round"/>
<path d="M40 268.193V269.969C40 272.93 42.525 275.245 45.4721 274.959C82.8822 271.328 163.138 265.002 225.5 265.002C287.366 265.002 358.838 271.227 391.937 274.872C394.91 275.199 397.5 272.875 397.5 269.884V267.981C397.5 266.145 396.52 264.455 394.85 263.692C377.326 255.687 323.5 241.637 225.5 240.502C126.722 239.357 64.641 254.789 42.896 263.74C41.0964 264.48 40 266.247 40 268.193Z" fill="#FAFCF8" stroke="#D9D9D9" stroke-width="5" stroke-linejoin="round"/>
<path d="M3 128C3 58.9644 58.9644 3 128 3H308C377.036 3 433 58.9644 433 128V179.267C433 180.39 432.635 181.462 431.868 182.281C424.009 190.676 373.215 237.5 218 237.5C62.7849 237.5 11.9912 190.676 4.13161 182.281C3.36458 181.461 3 180.39 3 179.267V128Z" fill="#FAFCF8" stroke="#D9D9D9" stroke-width="5" stroke-linejoin="round"/>
<circle cx="209" cy="73" r="30" fill="#FAFCF8" stroke="#D9D9D9" stroke-width="5" stroke-linejoin="round"/>
<circle cx="209" cy="73" r="21" fill="#FAFCF8" stroke="#D9D9D9" stroke-width="5" stroke-linejoin="round"/>
<circle cx="218" cy="449" r="134" stroke="#999999" stroke-width="10"/>
<mask id="mask0_1113_257" style="mask-type:alpha" maskUnits="userSpaceOnUse" x="229" y="224" width="128" height="234">
<rect x="298.941" y="457.77" width="72.1029" height="222.003" transform="rotate(-165 298.941 457.77)" fill="#D9D9D9"/>
</mask>
<g mask="url(#mask0_1113_257)">
<path d="M346.249 255.456C347.242 249.885 344.633 244.114 343.205 241.924L297.11 229.573C293.22 228.531 259.609 362.526 260.63 365.718C261.651 368.91 263.852 371.585 269.93 376.132C274.792 379.769 280.235 388.76 282.349 392.8L294.236 409.118C296.384 406.289 302.56 398.591 310.082 390.434C319.485 380.238 345.009 262.42 346.249 255.456Z" fill="white" stroke="#81EC40" stroke-width="5" stroke-linejoin="round"/>
<path d="M272.859 420.426C274.788 419.97 279.3 418.483 281.918 416.182L272.537 407.624C272.701 409.502 269.391 413.66 267.716 415.504L272.859 420.426Z" fill="white" stroke="#81EC40" stroke-width="5" stroke-linejoin="round"/>
<path d="M285.062 418.689L296.895 407.747L281.142 391.852L269.933 404.9C269.933 404.9 273.422 411.255 276.567 414.255C279.713 417.255 285.062 418.689 285.062 418.689Z" fill="white" stroke="#81EC40" stroke-width="5" stroke-linejoin="round"/>
</g>
<path d="M203.578 432.684V472H198.609V438.887L188.592 442.54V438.055L202.799 432.684H203.578ZM242.733 449.334V455.296C242.733 458.501 242.446 461.204 241.874 463.406C241.301 465.608 240.477 467.381 239.403 468.724C238.329 470.066 237.031 471.042 235.509 471.651C234.005 472.242 232.304 472.537 230.406 472.537C228.902 472.537 227.515 472.349 226.244 471.973C224.972 471.597 223.827 470.997 222.806 470.174C221.804 469.332 220.944 468.24 220.228 466.897C219.512 465.555 218.966 463.925 218.59 462.01C218.214 460.094 218.026 457.856 218.026 455.296V449.334C218.026 446.129 218.312 443.444 218.885 441.277C219.476 439.111 220.309 437.374 221.383 436.067C222.457 434.743 223.746 433.794 225.25 433.221C226.772 432.648 228.473 432.361 230.353 432.361C231.874 432.361 233.271 432.549 234.542 432.925C235.831 433.283 236.977 433.865 237.979 434.671C238.982 435.459 239.833 436.515 240.531 437.84C241.247 439.147 241.793 440.749 242.169 442.647C242.545 444.545 242.733 446.774 242.733 449.334ZM237.738 456.102V448.501C237.738 446.747 237.63 445.207 237.416 443.882C237.219 442.54 236.923 441.394 236.529 440.445C236.135 439.496 235.634 438.726 235.025 438.135C234.435 437.544 233.745 437.115 232.958 436.846C232.188 436.56 231.319 436.417 230.353 436.417C229.171 436.417 228.124 436.64 227.21 437.088C226.297 437.518 225.528 438.207 224.901 439.156C224.292 440.105 223.827 441.349 223.504 442.889C223.182 444.428 223.021 446.299 223.021 448.501V456.102C223.021 457.856 223.119 459.405 223.316 460.748C223.531 462.09 223.845 463.254 224.256 464.239C224.668 465.206 225.169 466.002 225.76 466.629C226.351 467.256 227.031 467.721 227.801 468.025C228.589 468.312 229.457 468.455 230.406 468.455C231.624 468.455 232.689 468.222 233.602 467.757C234.515 467.291 235.276 466.566 235.885 465.582C236.511 464.579 236.977 463.299 237.281 461.741C237.586 460.166 237.738 458.286 237.738 456.102Z" fill="black"/>
</svg>
